public/images/hashed/f7e82b080a99c73d2ad779a38566130e.svg

<?xml version="1.0" encoding="UTF-8"?>
<svg width="80px" height="80px" viewBox="0 0 80 80" version="1.1" xmlns="http://www.w3.org/2000/svg" xmlns:xlink="http://www.w3.org/1999/xlink">
    <!-- Generator: Sketch 64 (93537) - https://sketch.com -->
    <title>Icon-Architecture/64/Arch_Amazon-CloudWatch_64</title>
    <desc>Created with Sketch.</desc>
    <defs>
        <linearGradient x1="0%" y1="100%" x2="100%" y2="0%" id="linearGradient-1">
            <stop stop-color="#B0084D" offset="0%"></stop>
            <stop stop-color="#FF4F8B" offset="100%"></stop>
        </linearGradient>
    </defs>
    <g id="Icon-Architecture/64/Arch_Amazon-CloudWatch_64" stroke="none" stroke-width="1" fill="none" fill-rule="evenodd">
        <g id="Icon-Architecture-BG/64/Management-Governance" fill="url(#linearGradient-1)">
            <rect id="Rectangle" x="0" y="0" width="80" height="80"></rect>
        </g>
        <path d="M55.0592315,46.7773707 C55.0592315,42.8680281 51.8575588,39.6876305 47.9220646,39.6876305 C43.9865705,39.6876305 40.785903,42.8680281 40.785903,46.7773707 C40.785903,50.6867133 43.9865705,53.8671108 47.9220646,53.8671108 C51.8575588,53.8671108 55.0592315,50.6867133 55.0592315,46.7773707 M57.0697011,46.7773707 C57.0697011,51.7881194 52.9663327,55.8642207 47.9220646,55.8642207 C42.8788018,55.8642207 38.7754334,51.7881194 38.7754334,46.7773707 C38.7754334,41.7666219 42.8788018,37.6905206 47.9220646,37.6905206 C52.9663327,37.6905206 57.0697011,41.7666219 57.0697011,46.7773707 M65.5096522,60.4735504 L58.5011554,54.2026253 C57.9352082,54.9944794 57.2808004,55.7174332 56.5540156,56.3634982 L63.5524601,62.6334248 C64.1495696,63.1686502 65.0784065,63.1187225 65.6182176,62.5255808 C66.155013,61.9324392 66.1067617,61.010773 65.5096522,60.4735504 M47.9220646,57.6616197 C53.9645309,57.6616197 58.8801289,52.7786859 58.8801289,46.7773707 C58.8801289,40.7750569 53.9645309,35.8931217 47.9220646,35.8931217 C41.8806036,35.8931217 36.9650056,40.7750569 36.9650056,46.7773707 C36.9650056,52.7786859 41.8806036,57.6616197 47.9220646,57.6616197 M67.1119965,63.8626459 C66.4264264,64.6165549 65.47849,65 64.5285431,65 C63.7002296,65 62.8699057,64.708422 62.207456,64.1172774 L54.9305615,57.5987107 C52.9070239,58.8968321 50.505518,59.6587296 47.9220646,59.6587296 C40.7718297,59.6587296 34.9545361,53.8800921 34.9545361,46.7773707 C34.9545361,39.6746493 40.7718297,33.8960118 47.9220646,33.8960118 C55.0733048,33.8960118 60.8905985,39.6746493 60.8905985,46.7773707 C60.8905985,48.8154213 60.3990387,50.7366411 59.5465996,52.4511599 L66.8556616,58.9906963 C68.2750531,60.265851 68.3896499,62.4496907 67.1119965,63.8626459 M21.2803274,29.392529 C21.2803274,29.9117776 21.3124949,30.429029 21.3738143,30.9293051 C21.4089975,31.2138932 21.3205368,31.4984814 21.1295422,31.7131707 C20.9777518,31.8839236 20.7736891,31.9967603 20.550527,32.0347054 C18.0786547,32.6687878 14.0104695,34.5880104 14.0104695,40.3456782 C14.0104695,44.6933865 16.4240382,47.0929141 18.4495863,48.3411077 C19.1411878,48.7744806 19.9594489,49.0051468 20.8229456,49.0141338 L32.9450717,49.0251179 L32.9430613,51.0222278 L20.811888,51.0112437 C19.5664021,50.9982625 18.384246,50.6607509 17.3840374,50.0346569 C15.3765836,48.7974474 12,45.8896553 12,40.3456782 C12,33.66235 16.5999543,31.191925 19.3000149,30.319188 C19.2799102,30.0116331 19.2698579,29.702081 19.2698579,29.392529 C19.2698579,23.9324305 22.9982737,18.2696254 27.9420183,16.2215892 C33.7241287,13.8150717 39.8500294,15.0083449 44.3263399,19.4109737 C45.7135638,20.7749998 46.8545053,22.4316024 47.7300648,24.3478294 C48.9061895,23.3802296 50.355738,22.8460027 51.8836949,22.8460027 C54.8863312,22.8460027 58.2659305,25.1097268 58.8680661,30.0605622 C61.6797078,30.7046302 67.6206453,32.9553731 67.6206453,40.422567 C67.6206453,43.4042521 66.6797455,45.8666886 64.8230769,47.7419748 L63.3896121,46.3410022 C64.8632863,44.8531553 65.6101757,42.8620367 65.6101757,40.422567 C65.6101757,33.891019 60.1055101,32.2663701 57.737177,31.8719409 C57.4677741,31.827006 57.2295334,31.6752256 57.0757325,31.4515493 C56.9259525,31.2358614 56.8686541,30.9712444 56.9138897,30.7146157 C56.5851779,26.6604826 54.1605516,24.8431126 51.8836949,24.8431126 C50.4472144,24.8431126 49.1001998,25.5381069 48.1874466,26.7503526 C47.9652897,27.0439277 47.6044105,27.193711 47.2344841,27.139789 C46.8695838,27.085867 46.5629872,26.8362283 46.4373329,26.4917268 C45.6140456,24.2260057 44.4278686,22.3207628 42.9119745,20.8309188 C39.0327735,17.0154404 33.7281496,15.9809374 28.7170543,18.0649216 C24.5463352,19.7924217 21.2803274,24.7672224 21.2803274,29.392529" id="Amazon-CloudWatch_Icon_64_Squid" fill="#FFFFFF"></path>
    </g>
</svg>

<svg xmlns="http://www.w3.org/2000/svg" width="80" height="80"><defs><linearGradient id="a" x1="0%" x2="100%" y1="100%" y2="0%"><stop offset="0%" stop-color="#B0084D"/><stop offset="100%" stop-color="#FF4F8B"/></linearGradient></defs><g fill="none" fill-rule="evenodd"><path fill="url(#a)" d="M0 0h80v80H0z"/><path fill="#FFF" d="M55.06 46.777c0-3.909-3.202-7.09-7.138-7.09-3.935 0-7.136 3.181-7.136 7.09 0 3.91 3.2 7.09 7.136 7.09s7.137-3.18 7.137-7.09m2.01 0c0 5.011-4.103 9.087-9.147 9.087-5.043 0-9.147-4.076-9.147-9.087 0-5.01 4.104-9.086 9.147-9.086 5.044 0 9.148 4.076 9.148 9.086m8.44 13.697L58.5 54.203a13.033 13.033 0 0 1-1.947 2.16l6.998 6.27a1.474 1.474 0 0 0 2.066-.107 1.453 1.453 0 0 0-.108-2.052m-17.588-2.812c6.043 0 10.958-4.883 10.958-10.885s-4.915-10.884-10.958-10.884c-6.041 0-10.957 4.882-10.957 10.884 0 6.002 4.916 10.885 10.957 10.885m19.19 6.2A3.483 3.483 0 0 1 64.529 65a3.475 3.475 0 0 1-2.322-.883L54.931 57.6a12.935 12.935 0 0 1-7.009 2.06c-7.15 0-12.967-5.779-12.967-12.882 0-7.102 5.817-12.881 12.967-12.881 7.151 0 12.969 5.779 12.969 12.881 0 2.038-.492 3.96-1.344 5.674l7.309 6.54a3.444 3.444 0 0 1 .256 4.872M21.28 29.393c0 .519.032 1.036.094 1.536a.994.994 0 0 1-.823 1.106c-2.472.634-6.54 2.553-6.54 8.31 0 4.348 2.413 6.748 4.439 7.996.691.433 1.51.664 2.373.673l12.122.011-.002 1.997-12.131-.01c-1.246-.014-2.428-.351-3.428-.977C15.377 48.797 12 45.89 12 40.345c0-6.683 4.6-9.153 7.3-10.026-.02-.307-.03-.617-.03-.926 0-5.46 3.728-11.123 8.672-13.171 5.782-2.407 11.908-1.214 16.384 3.189 1.388 1.364 2.529 3.02 3.404 4.937a6.509 6.509 0 0 1 4.154-1.502c3.002 0 6.382 2.264 6.984 7.215 2.812.644 8.753 2.894 8.753 10.362 0 2.981-.941 5.444-2.798 7.319l-1.433-1.401c1.473-1.488 2.22-3.479 2.22-5.918 0-6.532-5.504-8.157-7.873-8.551a1.002 1.002 0 0 1-.823-1.157c-.329-4.055-2.753-5.872-5.03-5.872-1.437 0-2.784.695-3.697 1.907a1.006 1.006 0 0 1-1.75-.258c-.823-2.266-2.01-4.171-3.525-5.661-3.88-3.816-9.184-4.85-14.195-2.766-4.17 1.727-7.437 6.702-7.437 11.328"/></g></svg>
